ion/transgender.svg

<svg viewBox="0 0 512 512" xmlns="http://www.w3.org/2000/svg"><path d="M458 32h-68v0c-12.16 0-22 9.84-22 22 0 12.15 9.84 22 22 22h14.89l-59.57 59.57v0c-53.03-39.43-125.62-39.43-178.64 0l-7.57-7.57 26.45-26.44v0c8.59-8.6 8.59-22.53-.01-31.12 -8.6-8.6-22.53-8.6-31.12-.001l-26.44 26.45 -20.89-20.89h14.89v0c12.15 0 22-9.85 22-22 0-12.16-9.85-22-22-22h-68v0c-12.16 0-22 9.84-22 22v68 0c0 12.15 9.84 22 22 22 12.15 0 22-9.85 22-22v-14.89l20.89 20.89 -26.42 26.42v0c-8.71 8.47-8.89 22.4-.41 31.11 8.47 8.7 22.4 8.88 31.11.4 .13-.14.27-.28.4-.41l26.42-26.42 7.57 7.57 0-.001c-19.24 25.8-29.61 57.13-29.57 89.32 0 82.71 67.29 150 150 150v0c32.24.03 63.62-10.38 89.46-29.67l23.54 23.57 -26.54 26.54v0c-8.6 8.59-8.6 22.52 0 31.12 8.59 8.59 22.52 8.59 31.12 0l26.49-26.5 42.37 42.48v0c8.58 8.6 22.51 8.62 31.12.04 8.6-8.59 8.62-22.52.04-31.12l-42.43-42.46 26.39-26.39v0c8.59-8.6 8.59-22.53-.01-31.12 -8.6-8.6-22.53-8.6-31.12 0l-26.35 26.35 -23.55-23.62v0c39.32-53.02 39.27-125.53-.11-178.49l59.57-59.62v14.89 0c0 12.15 9.84 22 22 22 12.15 0 22-9.85 22-22v-68 0c0-12.16-9.85-22-22-22ZM150 256v0c0-58.55 47.45-106 106-106 58.54 0 106 47.45 106 106 0 58.54-47.46 106-106 106v0c-58.52-.07-105.94-47.49-106-106Z"/></svg>

<svg xmlns="http://www.w3.org/2000/svg" width="512" height="512" viewBox="0 0 512 512"><path d="M458,32H390a22,22,0,0,0,0,44h14.89l-59.57,59.57a149.69,149.69,0,0,0-178.64,0L159.11,128l26.45-26.44a22,22,0,0,0-31.12-31.12L128,96.89,107.11,76H122a22,22,0,0,0,0-44H54A22,22,0,0,0,32,54v68a22,22,0,0,0,44,0V107.11L96.89,128,70.47,154.42a22,22,0,1,0,31.11,31.11L128,159.11l7.57,7.57A149.19,149.19,0,0,0,106,256c0,82.71,67.29,150,150,150a149.2,149.2,0,0,0,89.46-29.67L369,399.9l-26.54,26.54a22,22,0,0,0,31.12,31.12l26.49-26.5,42.37,42.48a22,22,0,0,0,31.16-31.08L431.17,400l26.39-26.39a22,22,0,0,0-31.12-31.12l-26.35,26.35-23.55-23.62a149.68,149.68,0,0,0-.11-178.49L436,107.11V122a22,22,0,0,0,44,0V54A22,22,0,0,0,458,32ZM150,256A106,106,0,1,1,256,362,106.12,106.12,0,0,1,150,256Z"/></svg>
